assets/icons/functional/system&devices/gear.svg

<svg width="32" height="32" viewBox="0 0 32 32" fill="none" xmlns="http://www.w3.org/2000/svg"><g id="Icon-Gear"><g clip-path="url(#clip0_9_589)"><g id="size=md (32px)"><g id="Gear"><path id="Vector" d="M16 22C19.3137 22 22 19.3137 22 16C22 12.6863 19.3137 10 16 10C12.6863 10 10 12.6863 10 16C10 19.3137 12.6863 22 16 22Z" stroke="#101828" stroke-width="2" stroke-linecap="round" stroke-linejoin="round"/><path id="Vector_2" d="M22.9625 8.1375C23.2791 8.42916 23.5791 8.72916 23.8624 9.0375L27.275 9.525C27.831 10.4906 28.2595 11.5242 28.5499 12.6L26.475 15.3625C26.475 15.3625 26.5125 16.2125 26.475 16.6375L28.5499 19.4C28.2609 20.4762 27.8322 21.51 27.275 22.475L23.8624 22.9625C23.8624 22.9625 23.275 23.575 22.9625 23.8625L22.475 27.275C21.5093 27.831 20.4757 28.2596 19.4 28.55L16.6375 26.475C16.2133 26.5125 15.7866 26.5125 15.3625 26.475L12.6 28.55C11.5237 28.2609 10.49 27.8323 9.52495 27.275L9.03745 23.8625C8.72912 23.5708 8.42912 23.2708 8.13745 22.9625L4.72495 22.475C4.16893 21.5094 3.74036 20.4758 3.44995 19.4L5.52495 16.6375C5.52495 16.6375 5.48745 15.7875 5.52495 15.3625L3.44995 12.6C3.73902 11.5238 4.16765 10.49 4.72495 9.525L8.13745 9.0375C8.42912 8.72916 8.72912 8.42916 9.03745 8.1375L9.52495 4.725C10.4906 4.16897 11.5242 3.74041 12.6 3.45L15.3625 5.525C15.7866 5.48749 16.2133 5.48749 16.6375 5.525L19.4 3.45C20.4762 3.73906 21.5099 4.1677 22.475 4.725L22.9625 8.1375Z" stroke="#101828" stroke-width="2" stroke-linecap="round" stroke-linejoin="round"/></g></g></g></g><defs><clipPath id="clip0_9_589"><rect width="32" height="32" rx="5" fill="white"/></clipPath></defs></svg>

<svg xmlns="http://www.w3.org/2000/svg" width="32" height="32" fill="none"><path stroke="#101828" stroke-linecap="round" stroke-linejoin="round" stroke-width="2" d="M16 22a6 6 0 1 0 0-12 6 6 0 0 0 0 12Z"/><path stroke="#101828" stroke-linecap="round" stroke-linejoin="round" stroke-width="2" d="M22.963 8.137c.316.292.616.592.9.9l3.412.488c.556.966.985 2 1.275 3.075l-2.075 2.763s.038.85 0 1.274L28.55 19.4a12.778 12.778 0 0 1-1.275 3.075l-3.412.487s-.588.613-.9.9l-.488 3.413A12.87 12.87 0 0 1 19.4 28.55l-2.762-2.075a7.24 7.24 0 0 1-1.275 0L12.6 28.55a12.776 12.776 0 0 1-3.075-1.275l-.487-3.413a22.88 22.88 0 0 1-.9-.9l-3.413-.487c-.556-.966-.984-2-1.275-3.075l2.075-2.762s-.037-.85 0-1.276L3.45 12.6c.29-1.076.718-2.11 1.275-3.075l3.413-.488c.291-.308.591-.608.9-.9l.487-3.412c.966-.556 2-.985 3.075-1.275l2.763 2.075c.424-.038.85-.038 1.275 0L19.4 3.45c1.076.289 2.11.718 3.075 1.275l.488 3.412Z"/></svg>
